icons/squirrel-16.svg

<svg xmlns="http://www.w3.org/2000/svg" width="16" height="16" viewBox="0 0 16 16"><path fill-rule="evenodd" d="M3.499.75a.75.75 0 011.5 0v.996C5.9 2.903 6.793 3.65 7.662 4.376l.24.202c-.036-.694.055-1.422.426-2.163C9.1.873 10.794-.045 12.622.26 14.408.558 16 1.94 16 4.25c0 1.278-.954 2.575-2.44 2.734l.146.508.065.22c.203.701.412 1.455.476 2.226.142 1.707-.4 3.03-1.487 3.898C11.714 14.671 10.27 15 8.75 15h-6a.75.75 0 010-1.5h1.376a4.489 4.489 0 01-.563-1.191 3.833 3.833 0 01-.05-2.063 4.636 4.636 0 01-2.025-.293.75.75 0 11.525-1.406c1.357.507 2.376-.006 2.698-.318l.009-.01a.748.748 0 011.06 0 .75.75 0 01-.012 1.074c-.912.92-.992 1.835-.768 2.586.221.74.745 1.337 1.196 1.621H8.75c1.343 0 2.398-.296 3.074-.836.635-.507 1.036-1.31.928-2.602-.05-.603-.216-1.224-.422-1.93l-.064-.221c-.12-.407-.246-.84-.353-1.29a2.404 2.404 0 01-.507-.441 3.063 3.063 0 01-.633-1.248.75.75 0 011.455-.364c.046.185.144.436.31.627.146.168.353.305.712.305.738 0 1.25-.615 1.25-1.25 0-1.47-.95-2.315-2.123-2.51-1.172-.196-2.227.387-2.706 1.345-.46.92-.27 1.774.019 3.062l.042.19a.753.753 0 01.01.05c.348.443.666.949.94 1.553a.75.75 0 11-1.365.62c-.553-1.217-1.32-1.94-2.3-2.768a85.08 85.08 0 00-.317-.265c-.814-.68-1.75-1.462-2.692-2.619a3.74 3.74 0 00-1.023.88c-.406.495-.663 1.036-.722 1.508.116.122.306.21.591.239.388.038.797-.06 1.032-.19a.75.75 0 01.728 1.31c-.515.287-1.23.439-1.906.373-.682-.067-1.473-.38-1.879-1.193L.75 5.677V5.5c0-.984.48-1.94 1.077-2.664.46-.559 1.05-1.055 1.673-1.353V.75z"/></svg>

<svg xmlns="http://www.w3.org/2000/svg" width="16" height="16" viewBox="0 0 16 16">
  <defs/>
  <path d="M3.499,0.75 C3.499,0.336 3.835,0 4.249,0 C4.663,0 4.999,0.336 4.999,0.75 L4.999,1.746 C5.9,2.903 6.793,3.65 7.662,4.376 L7.902,4.578 C7.866,3.884 7.957,3.156 8.328,2.415 C9.1,0.873 10.794,-0.045 12.622,0.26 C14.408,0.558 16,1.94 16,4.25 C16,5.528 15.046,6.825 13.56,6.984 L13.706,7.492 L13.771,7.712 C13.974,8.413 14.183,9.167 14.247,9.938 C14.389,11.645 13.847,12.968 12.76,13.836 C11.714,14.671 10.27,15 8.75,15 L2.75,15 C2.336,15 2,14.664 2,14.25 C2,13.836 2.336,13.5 2.75,13.5 L4.126,13.5 C3.881,13.133 3.691,12.732 3.563,12.309 C3.358,11.639 3.341,10.925 3.513,10.246 C2.825,10.3 2.133,10.2 1.488,9.953 C1.1,9.808 0.903,9.376 1.048,8.988 C1.192,8.599 1.625,8.402 2.013,8.547 C3.37,9.054 4.389,8.541 4.711,8.229 L4.72,8.219 C4.86,8.078 5.051,7.999 5.25,7.999 C5.449,7.999 5.64,8.078 5.78,8.219 C5.923,8.362 6.003,8.556 6,8.759 C5.998,8.961 5.914,9.153 5.768,9.293 C4.856,10.213 4.776,11.128 5,11.879 C5.221,12.619 5.745,13.216 6.196,13.5 L8.75,13.5 C10.093,13.5 11.148,13.204 11.824,12.664 C12.459,12.157 12.86,11.354 12.752,10.062 C12.702,9.459 12.536,8.838 12.33,8.132 L12.266,7.911 C12.146,7.504 12.02,7.071 11.913,6.621 C11.724,6.498 11.554,6.35 11.406,6.18 C11.102,5.818 10.885,5.391 10.773,4.932 C10.679,4.533 10.923,4.133 11.321,4.033 C11.719,3.934 12.123,4.172 12.228,4.568 C12.274,4.753 12.372,5.004 12.538,5.195 C12.684,5.363 12.891,5.5 13.25,5.5 C13.988,5.5 14.5,4.885 14.5,4.25 C14.5,2.78 13.55,1.935 12.377,1.74 C11.205,1.544 10.15,2.127 9.671,3.085 C9.211,4.005 9.401,4.859 9.69,6.147 L9.732,6.337 C9.736,6.354 9.739,6.37 9.742,6.387 C10.09,6.83 10.408,7.336 10.682,7.94 C10.803,8.185 10.781,8.477 10.624,8.702 C10.467,8.926 10.201,9.047 9.929,9.018 C9.657,8.988 9.422,8.813 9.317,8.56 C8.764,7.343 7.997,6.62 7.017,5.792 C6.912,5.703 6.806,5.615 6.7,5.527 C5.886,4.847 4.95,4.065 4.008,2.908 C3.616,3.137 3.27,3.435 2.985,3.788 C2.579,4.283 2.322,4.824 2.263,5.296 C2.379,5.418 2.569,5.506 2.854,5.535 C3.242,5.573 3.651,5.475 3.886,5.345 C4.245,5.165 4.683,5.299 4.878,5.651 C5.074,6.002 4.957,6.445 4.614,6.655 C4.099,6.942 3.384,7.094 2.708,7.028 C2.026,6.961 1.235,6.648 0.829,5.835 L0.75,5.677 L0.75,5.5 C0.75,4.516 1.23,3.56 1.827,2.836 C2.287,2.277 2.877,1.781 3.5,1.483 L3.5,0.75 Z"/>
</svg>
